!!!COM: Victor Masse/
!!!CNT: Francais
!!!TXO: Francais
!!!OTL: Adieux a Suzon
!!!LYR: Alfred de Musset
!!!ONM: No. 2
!!!ENC: Jacob Pegg
!!!YOR: Romantic French Song 1830-1870 -David Tunley, ed.,
!!!YOR: New York: Garland Publishing, Inc., 1995, Vol. 4
!!!ODT: 1874/
!!NB: Vocal melody and text only encoded.
!!NB: First instance of melodic material only encoded.
**kern	**silbe
*clef G2	*
*k[b-e-a-]	*
*M6/8	*
=12	=12
4r	.
{8b-	{A-
4gg	-dieu
8ff	Su-
=13	=13
4ee-	-zon,
8b-	ma
4a-	ro-
8cc	-se
=14	=14
4b-	blon-
8g	|
[4.e-	-de,
=15	=15
8.e-]}	|}
{8.f	{Qui
8.g	m'as
8.a-	ai-
=16	=16
8.b-	-me/
8.cc	pen-
8.dd	-dant
8.ee-	huit
=17	=17
2.ff}	jours;}
=18	=18
{4gg	{Les
8ff	plus
4ee-	courts
8dd	plai-
=19	=19
(4.cc	-sirs
4.ee-)	|
=20	=20
4.dd	de
4.gg	ce
=21	=21
4.ff	mon-
[4.ee-	-de
=22	=22
4ee-]}	|}
8r	.
{4.cc	{Sou-
=23	=23
[4.cc	-vent
4cc]	|
8cc	font
=24	=24
4ee-	les
8dd-	meil-
4cc	-leurs
8b-	a-
=25	=25
[4.ee-	-mours
4ee-]}	|}
8r	.
=26	=26
{2.een	{Sou-
=27	=27
4.ff	-vent
4.b-	font
=28	=28
4ee-	les
8dd-	meil-
(16ccq	|
16dd-q	|
4cc)	-leurs
8b-	a-
=29	=29
[4.a-	-mours.
4a-]}	|}
8r	.
=30	=30
{4.cc	{Sais~
4ff	~je, au
8gg	mo-
=31	=31
(4.ff	-ment
4.een)	|
=32	=32
4.cc	ou\
4ff	je
8gg	te
=33	=33
(4.ff	qui-
4een)}	-te,}
8r	.
=34	=34
{[4.ff	{Ou\
4ff]	|
8ee-	m'en-
=35	=35
4.dd	-trai^-
4cc	-ne
8b-	mon
=36	=36
[4.ff	astre
4ff]	|
8ee-	er-
=37	=37
2.dd}	-rant?}
=38	=38
{8.cc	{Je
8.dd	m'en
8.ee-	vais
8.ff	pour-
=39	=39
(4.b-	-tant,
4.gg)	|
=40	=40
(16ffq	|
16ggq	|
[4.ff)	ma
4ff]	|
8cc	pe-
=41	=41
(4.cc	-ti-
4.b-)}	-te,}
=42	=42
4r	.
{8bn	{Bien
4bn	loin,
8bn	bien
=43	=43
(4.dd	vi-
4.cc)	-te,
=44	=44
4r	.
8dd	tou-
4dd	-jours
8dd	cou-
=45	=45
2.ee-}	-rant.}
=46	=46
4r	.
{8een	{Bien
4een	loin,
8een	bien
=47	=47
(4.gg	vi-
4ff)}	-te,}
8r	.
=48	=48
4r	.
{8ff#	{tou-
4ff#	-jours
8ff#	cou-
=49	=49
[2.gg	-rant.
=50	=50
4.gg_	|
4gg]}	|}
8r	.
=51	=51
{(8.aa-	{Tou-
8.cc)	|
[4.gg	-jours
=52	=52
4.gg_	|
4gg]	|
8ff	cou-
=53	=53
[2.ee-	-rant.
=54	=54
8ee-]}	|}
8r	.
8r	.
4r	.
8r	.
!!mm55-63 rest, 64-106 essentially identical melody to 12-54
!!mm 107-115 rest
=116	=116
4r	.
{8b-	{Que
4gg-	de
8ff	tris-
=117	=117
4ee-	-tes-
8b-	-se, et
4a-	que
8cc-	de
=118	=118
4b-	char-
8g-	|
[4.e-	-mes,
=119	=119
8.e-]}	|}
{8.f	{Ten-
8.g-	-dre en-
8.a-	-fant,
=120	=120
8.b-	dans
8.cc	tes
8.dd	doux
8.ee-	a-
=121	=121
2.ff}	-dieux!}
=122	=122
{[4.gg-	{Tout
4gg-]	|
8ee-	m'en-
=123	=123
(4.dd-	-i-
4b-)	-vre,
8dd-	jus-
=124	=124
[4.ff	-qu'a
4ff]	|
8ee-	tes
=125	=125
(4.ee-	lar-
[4.dd-)	-mes,
=126	=126
4dd-]}	|}
8r	.
{[4.cc#	{Lors-
=127	=127
4.cc#]	|
4b#	-que
8cc#	ton
=128	=128
4een	coeur
8dd	est
4cc#	dans
8bn	tes
=129	=129
2.een}	yeux.}
=130	=130
{4.ee#	{Lors-
4ee#	-que
8ee#	ton
=131	=131
4.ff#	coeur
4.bn	est
=132	=132
(4een	dans
8dd)	|
(16cc#q	|
16ddq	|
4cc#	tes
8bn)	|
=133	=133
[4.an	yeux.
8an]}	|}
8r	.
{8cc#	{A
=134	=134
4.cc#	vi-
4.ff#	|
=135	=135
4ee#	-vre
8r	.
4cc#	ton
8cc#	re-
=136	=136
(4.cc#	-gard
4ff#)	|
8gg#	m'in-
=137	=137
(4.ff#	-vi-
8ee#)}	-te;}
8r	.
{8ffn	{Il
=138	=138
4ff	me
8ff	con-
4ff	-so-
8ee-	-le-
=139	=139
(4.dd	-rait
[4.ff)	|
=140	=140
4.ff_	|
4ff]	|
8ee-	mou-
=141	=141
2.dd}	-rant.}
!!mm. 142-158 are just like mm. 38-54
!!mm. 159-167 voice tacit
=168	=168
*M4/4	*
*k[f#]	*
8r	.
{8b	{Que
8b	no-
8b	-tre a-
8b	-mour,
8dd	si
8dd	tu
8dd	m'ou-
=169	=169
8dd	-bli-
8ee	|
8ff#	|
8ee	|
(4.dd;}	-es,}
{8b	{Su-
=170	=170
4g)	-zon,
8a	du-
8b	-re en-
8cc	-core
8dd	|
8ee	un
8a	mo-
=171	=171
(2cc	-ment;
[4a)	|
8a]}	|}
8r	.
=172	=172
8r	.
{8b	{Com-
8b	-me un
8b	bou-
8b	-quet
8cc#	de
8cc#	fleurs
8cc#	pa^-
=173	=173
8cc#	-li-
8gg	|
8ff#	|
8ee	|
(4dd}	-es,}
{8ee	{Ca-
8ccn	-che~
=174	=174
[2a)	~le
8a]	|
8r	.
8dd	ca-
8b	-che~
=175	=175
8g	~le
8f#	|
8e	dans
8cc	ton
4.b;	sein
8a	char-
=176	=176
[2g	-mant!
8g]}	|}
8r	.
{4dd	{A-
=177	=177
[2ffn	-dieu;
8ffn]	|
16b	le
16cc	bon-
8ee;	-heur
16dd	res-
16b	-te au
=178	=178
(2dd	gi^-
[4cc)	-te,
8cc]}	|}
8r	.
=179	=179
{4dd	{Le
8ffn	sou-
8aa	-ve-
8gg	-nir
8ffn	part
8ee	a-
8dd	-vec
=180	=180
*M6/8	*
*k[b-e-a-]	*
[4.cc	moi:
4cc]}	|}
8r	.
!!mm. 181-197 just like mm. 38-54
!!mm. 198-end (203) rest
*-	*-
